icon-svg/maybach.svg

<svg xmlns="http://www.w3.org/2000/svg" viewBox="0 0 24 24"><path fill="#44739e" d="M21.515 14.609a20.53 20.53 0 0 0-7.25-8.921 7 7 0 0 0-2.262-1.131 7 7 0 0 0-2.262 1.131 20.53 20.53 0 0 0-7.251 8.921 6.8 6.8 0 0 0-.489 1.775.4.4 0 0 0 .026.18.4.4 0 0 0 .1.18 7.3 7.3 0 0 0 1.569.926 20.4 20.4 0 0 0 8.307 1.773 20.4 20.4 0 0 0 8.301-1.773 7.3 7.3 0 0 0 1.569-.926.4.4 0 0 0 .1-.18.4.4 0 0 0 .026-.18 6.8 6.8 0 0 0-.484-1.775M3.93 17.155a5 5 0 0 1-1.182-.72.5.5 0 0 1-.077-.128.3.3 0 0 1-.026-.155 4.8 4.8 0 0 1 .385-1.311 20 20 0 0 1 5.755-7.73c.182-.149.366-.3.553-.439l.281-.212q.213-.158.43-.309l.009-.006.016-.011.022-.015.029-.02.036-.023.042-.027.048-.031.052-.033.086-.055a7.6 7.6 0 0 1 1.186-.631l.038-.014a2 2 0 0 1 .243-.071 1 1 0 0 1 .147-.015l.085.006a1 1 0 0 1 .127.026l.069.02.072.023q.074.025.152.058.039.015.078.033l.04.018q.14.064.284.138.207.108.4.221l.047.027.134.081.1.061.118.074.022.014.072.047.042.027.035.023.077.052q.197.137.391.281l.084.062q.16.119.318.241l.122.1.273.22q.772.628 1.479 1.33a19.9 19.9 0 0 1 4.352 6.461 4.8 4.8 0 0 1 .385 1.311.3.3 0 0 1-.025.155.6.6 0 0 1-.078.128 5 5 0 0 1-1.182.72 20.2 20.2 0 0 1-8.073 1.695h-.4a20.2 20.2 0 0 1-7.673-1.697m9.949 1.183v-4.449l-1.876 1.131-1.877-1.131v4.449a15 15 0 0 0 1.877.1 15 15 0 0 0 1.876-.1M3.133 16.024v.1c.026.025.051.077.077.1a4.4 4.4 0 0 0 .9.54c.488.206.977.412 1.465.592l.1-6.351A19 19 0 0 0 3.416 15a3.8 3.8 0 0 0-.283 1.024m12.418-3.137v5.219c.412-.077.8-.154 1.183-.257a1949 1949 0 0 0-.077-5.631Zm-1.003-5.76a9 9 0 0 0-.848-.617 5.4 5.4 0 0 0-1.697-.848 5.4 5.4 0 0 0-1.7.848 9 9 0 0 0-.848.617l2.548 1.517Zm-2.55 3.497-1.877-1.157v2.469l1.877 1.131 1.878-1.131V9.467Zm-4.726 7.225c.386.1.771.18 1.182.257v-5.219l-1.1-.669s-.052 3.369-.082 5.631m12.624-1.08a4.4 4.4 0 0 0 .9-.54c.026-.025.051-.077.077-.1v-.1A3.8 3.8 0 0 0 20.59 15a19 19 0 0 0-2.262-3.985l.077 6.351c.514-.185.999-.391 1.491-.597M15.551 7.95v2.983l1.853-1.105a21 21 0 0 0-1.853-1.878m-7.097 0a21 21 0 0 0-1.852 1.878l1.851 1.105Zm3.549 6.582 2.288-1.388v5.425l.053-.005c.265-.027.53-.075.8-.124v-5.81l1.929-1.157.1 6.531c.283-.077.565-.155.823-.232l-.1-7.764-2.693 1.606-.064.039V7.252l-3.136 1.882-3.136-1.878v4.401l-2.752-1.649-.1 7.764c.257.077.54.155.823.232l.1-6.531 1.929 1.157v5.81c.282.051.563.1.845.128v-5.424ZM9.715 8.748l2.288 1.363 2.288-1.363v3.419l-2.288 1.388-2.288-1.388Z"/></svg>

<?xml version="1.0" encoding="UTF-8"?>
<svg width="24px" fill="#44739e" height="24px" viewBox="0 0 24 24" version="1.1" xmlns="http://www.w3.org/2000/svg" xmlns:xlink="http://www.w3.org/1999/xlink">
            <path d="m 21.511,14.609 v 0 A 20.525,20.525 0 0 0 14.262,5.689 6.972,6.972 0 0 0 12,4.558 6.972,6.972 0 0 0 9.738,5.689 20.534,20.534 0 0 0 2.488,14.609 6.843,6.843 0 0 0 2,16.383 a 0.431,0.431 0 0 0 0.026,0.18 0.41,0.41 0 0 0 0.1,0.18 7.249,7.249 0 0 0 1.568,0.926 20.379,20.379 0 0 0 8.306,1.773 20.379,20.379 0 0 0 8.3,-1.773 7.249,7.249 0 0 0 1.568,-0.926 0.4,0.4 0 0 0 0.1,-0.18 0.431,0.431 0 0 0 0.026,-0.18 6.832,6.832 0 0 0 -0.483,-1.774 z M 3.928,17.154 A 4.847,4.847 0 0 1 2.746,16.434 0.518,0.518 0 0 1 2.669,16.306 0.278,0.278 0 0 1 2.643,16.151 4.8,4.8 0 0 1 3.028,14.841 19.984,19.984 0 0 1 8.782,7.112 C 8.964,6.963 9.148,6.812 9.335,6.673 L 9.616,6.461 C 9.758,6.356 9.902,6.253 10.046,6.152 L 10.055,6.146 10.071,6.135 10.093,6.12 10.122,6.1 10.158,6.077 10.2,6.05 10.248,6.019 10.3,5.986 10.386,5.931 A 7.636,7.636 0 0 1 11.572,5.3 L 11.61,5.286 A 1.684,1.684 0 0 1 11.853,5.215 0.746,0.746 0 0 1 12,5.2 a 0.641,0.641 0 0 1 0.085,0.006 1.148,1.148 0 0 1 0.127,0.026 c 0.023,0.006 0.046,0.012 0.069,0.02 l 0.072,0.023 c 0.049,0.017 0.1,0.036 0.152,0.058 q 0.039,0.015 0.078,0.033 l 0.04,0.018 c 0.093,0.042 0.189,0.089 0.284,0.138 0.137,0.071 0.272,0.147 0.4,0.221 l 0.047,0.027 0.134,0.081 0.1,0.061 0.118,0.074 0.022,0.014 0.072,0.047 0.042,0.027 0.035,0.023 0.077,0.052 c 0.131,0.092 0.262,0.185 0.391,0.281 l 0.084,0.062 c 0.107,0.079 0.213,0.16 0.318,0.241 l 0.122,0.1 c 0.091,0.073 0.183,0.146 0.273,0.22 q 0.771,0.628 1.478,1.33 a 19.912,19.912 0 0 1 4.352,6.46 4.8,4.8 0 0 1 0.385,1.31 0.288,0.288 0 0 1 -0.025,0.155 0.549,0.549 0 0 1 -0.078,0.128 4.847,4.847 0 0 1 -1.182,0.72 A 20.171,20.171 0 0 1 12,18.851 c -0.134,0 -0.267,0 -0.4,0 A 20.2,20.2 0 0 1 3.928,17.154 Z M 18.324,11.01 Z m -4.448,7.327 V 13.889 L 12,15.02 10.123,13.889 v 4.448 a 15.334,15.334 0 0 0 1.877,0.1 15.317,15.317 0 0 0 1.876,-0.1 z M 3.131,16.023 v 0.1 c 0.026,0.025 0.051,0.077 0.077,0.1 a 4.392,4.392 0 0 0 0.9,0.54 c 0.488,0.206 0.977,0.412 1.465,0.592 l 0.1,-6.35 A 18.964,18.964 0 0 0 3.414,15 3.75,3.75 0 0 0 3.131,16.023 Z m 12.416,-3.136 v 5.218 c 0.412,-0.077 0.8,-0.154 1.183,-0.257 -0.026,-2.262 -0.077,-5.63 -0.077,-5.63 z M 14.545,7.128 A 8.992,8.992 0 0 0 13.697,6.511 5.379,5.379 0 0 0 12,5.663 5.368,5.368 0 0 0 10.3,6.511 8.992,8.992 0 0 0 9.452,7.128 L 12,8.645 Z m -2.55,3.496 -1.877,-1.157 v 2.469 l 1.877,1.131 1.878,-1.131 V 9.467 Z M 7.27,17.848 c 0.386,0.1 0.771,0.18 1.182,0.257 v -5.218 l -1.1,-0.669 c 0,0 -0.052,3.368 -0.082,5.63 z m 12.622,-1.08 a 4.392,4.392 0 0 0 0.9,-0.54 c 0.026,-0.025 0.051,-0.077 0.077,-0.1 v -0.1 A 3.75,3.75 0 0 0 20.586,15 18.964,18.964 0 0 0 18.324,11.015 l 0.077,6.35 C 18.915,17.18 19.4,16.974 19.892,16.768 Z M 15.547,7.951 v 0 2.982 L 17.4,9.828 A 21.021,21.021 0 0 0 15.547,7.951 Z m -7.095,0 A 21.3,21.3 0 0 0 6.6,9.828 l 1.851,1.105 z M 12,14.532 v 0 l 2.288,-1.388 v 5.424 l 0.053,-0.005 c 0.265,-0.027 0.53,-0.075 0.8,-0.124 V 12.63 l 1.928,-1.157 0.1,6.53 c 0.283,-0.077 0.565,-0.155 0.823,-0.232 v 0 l -0.1,-7.763 -2.692,1.606 -0.064,0.039 v -4.4 L 12,9.134 8.864,7.257 v 0 4.4 l -2.751,-1.649 -0.1,7.763 v 0 c 0.257,0.077 0.54,0.155 0.823,0.232 l 0.1,-6.53 1.928,1.157 v 5.809 0 c 0.282,0.051 0.563,0.1 0.845,0.128 v 0 -5.423 z M 9.712,8.748 12,10.111 14.288,8.748 v 3.419 L 12,13.555 9.712,12.167 Z"/>

</svg>
